X: 27850
T: Mother's Delight
R: reel
M: 4/4
K: Ddorian
DE|:F2 FE F2 DE|FEFA GECE|Ddd^c defe|
decd ABcA|d2 dc A3B|cBcG ECCE|Dddc A3_B|AGEG FDDE:|
FAdA FDDF|EGcG ECDE|FAdA FDDF|(3EGE EC A,DDE|
FAdA FDDF|EGcG ECFE|Dddc A3_B|AGEG FDD2||

